X: 1
T: Southwind
O: Ireland (17th century)
R: Waltz
%Q: 180
S: Fiddle Hell 2021-11-3 handout, from abcnotation.com and the Celtic Jam collection
Z: 2021 John Chambers <jc:trillian.mit.edu> (reformatted to 4 8-bar staffs.)
M: 3/4
L: 1/4
K: G
d/c/ | "G"B>AG | Bcd | "D"A3- | "(D7)"A2d/c/ | "G"B>AG | "C"EDE | "G"G3- | G2 ||
d/c/ | "G"B>AG | Bcd | "D"A>GF/G/ | "(D7)"A2d/c/ | "G"B>AG | "C"EDE | "G"G3- | G |]
Bd | "G"g2g | "C"g>fe | "G"d3- | "(D7)"d2 d/c/ | "G"B>AG | Bcd | "D"A3- | A2 ||
d | "C"g2g | g>fe | "G"d3 | "(D7)"d2c | "G"B>AG | "D"A<cF | "G(C)"G3- | "G"G2 |]
